; generated by PrusaSlicer 2.2.0+ on 2021-09-09 at 22:08:25 UTC


;
;

;
;
; 

; external perimeters extrusion width = 0.40mm
; perimeters extrusion width = 0.40mm
; infill extrusion width = 0.45mm
; solid infill extrusion width = 0.45mm
; top infill extrusion width = 0.40mm
; first layer extrusion width = 0.42mm

M73 P0 R149
M201 X1250 Y1250 Z400 E5000 ; sets maximum accelerations, mm/sec^2
M203 X180 Y180 Z12 E80 ; sets maximum feedrates, mm/sec
M204 P1250 R1250 T1250 ; sets acceleration (P, T) and retract acceleration (R), mm/sec^2
M205 X8.00 Y8.00 Z2.00 E10.00 ; sets the jerk limits, mm/sec
M205 S0 T0 ; sets the minimum extruding and travel feed rate, mm/sec
M107
G90 ; use absolute coordinates
M83 ; extruder relative mode
M104 S170 ; set extruder temp for bed leveling
M140 S62 ; set bed temp
M109 R170 ; wait for bed leveling temp
M190 S62 ; wait for bed temp
G28 ; home all without mesh bed level
G29 ; mesh bed leveling 
M104 S215 ; set extruder temp
G92 E0.0
G1 Y-2.0 X179 F2400
G1 Z3 F720
M109 S215 ; wait for extruder temp

; intro line
G1 X170 F1000
G1 Z0.2 F720
G1 X110.0 E8.0 F900
M73 P0 R149
G1 X40.0 E10.0 F700
G92 E0.0

M221 S95 ; set flow
G21 ; set units to millimeters
G90 ; use absolute coordinates
M83 ; use relative distances for extrusion
M900 K0.2 ; Filament gcode LA 1.5
; ; Filament gcode LA 1.0
;BEFORE_LAYER_CHANGE
G92 E0.0
;0.2


G1 Z0.200 F9000.000
;AFTER_LAYER_CHANGE
;0.2
G1 E-3.20000 F4200.00000
G1 Z0.400 F9000.000
G1 X52.369 Y36.054
G1 Z0.200
G1 E3.20000 F2400.00000
M204 S800
G1 F900.000
G1 X53.167 Y35.856 E0.02579
G1 X61.335 Y35.851 E0.25610
G1 X62.219 Y35.913 E0.02779
G1 X63.097 Y36.100 E0.02814
G1 X63.932 Y36.405 E0.02789
G1 X64.740 Y36.838 E0.02872
G1 X65.459 Y37.367 E0.02799
G1 X66.189 Y38.097 E0.03237
G1 X66.725 Y38.827 E0.02840
G1 X67.137 Y39.590 E0.02720
G1 X67.516 Y40.673 E0.03597
G1 X67.694 Y41.808 E0.03603
G1 X67.688 Y49.539 E0.24239
G1 X67.505 Y50.190 E0.02119
G1 X67.146 Y50.763 E0.02119
G1 X58.033 Y60.945 E0.42846
G1 X38.011 Y79.959 E0.86577
G1 X37.320 Y80.412 E0.02590
G1 X36.409 Y80.605 E0.02919
G1 X20.848 Y80.586 E0.48790
G1 X19.747 Y80.405 E0.03498
G1 X18.566 Y79.974 E0.03942
G1 X17.585 Y79.389 E0.03581
G1 X16.738 Y78.651 E0.03523
G1 X16.175 Y77.980 E0.02748
G1 X15.701 Y77.223 E0.02800
G1 X15.340 Y76.414 E0.02777
G1 X15.094 Y75.553 E0.02806
G1 X14.970 Y74.674 E0.02784
G1 X14.978 Y73.891 E0.02455
G1 X15.157 Y73.267 E0.02036
G1 X15.500 Y72.712 E0.02048
G1 X51.686 Y36.512 E1.60482
G1 X52.319 Y36.088 E0.02390
M204 S1250
; printing object fillet_gauge.stl id:0 copy 0
G1 E-2.24000 F4200.00000
G1 F7200.000
G1 X53.167 Y35.856 E-0.48714
G1 X53.934 Y35.856 E-0.42486
G1 E-0.04800 F4200.00000
G1 Z0.400 F9000.000
G1 X54.418 Y39.392
G1 Z0.200
G1 E3.20000 F2400.00000
M204 S800
G1 F900.000
G1 X61.299 Y39.392 E0.21574
G1 X61.725 Y39.422 E0.01340
G1 X62.129 Y39.508 E0.01293
G1 X62.566 Y39.677 E0.01470
G1 X62.916 Y39.879 E0.01266
G1 X63.227 Y40.122 E0.01239
G1 X63.502 Y40.407 E0.01240
G1 X63.734 Y40.726 E0.01239
G1 X63.928 Y41.090 E0.01292
G1 X63.992 Y41.250 E0.00541
G1 X64.079 Y41.534 E0.00930
G1 X64.151 Y41.940 E0.01292
G1 X64.167 Y42.255 E0.00988
G1 X64.167 Y48.134 E0.18434
G1 X63.218 Y48.285 E0.03014
G1 X62.190 Y48.560 E0.03336
G1 X61.196 Y48.941 E0.03336
G1 X60.248 Y49.424 E0.03336
G1 X59.356 Y50.004 E0.03336
G1 X58.529 Y50.673 E0.03337
G1 X57.777 Y51.426 E0.03336
G1 X57.107 Y52.253 E0.03337
G1 X56.528 Y53.145 E0.03336
G1 X56.044 Y54.093 E0.03336
G1 X55.663 Y55.087 E0.03336
G1 X55.388 Y56.114 E0.03336
G1 X55.221 Y57.165 E0.03336
G1 X55.171 Y58.134 E0.03040
G1 X54.226 Y58.283 E0.02999
G1 X53.521 Y58.459 E0.02277
G1 X52.523 Y58.803 E0.03310
G1 X51.566 Y59.249 E0.03310
G1 X50.945 Y59.608 E0.02251
G1 X50.349 Y60.009 E0.02251
G1 X49.536 Y60.668 E0.03284
G1 X49.013 Y61.173 E0.02277
G1 X48.321 Y61.969 E0.03310
G1 X47.715 Y62.834 E0.03310
G1 X47.352 Y63.463 E0.02277
G1 X46.909 Y64.412 E0.03283
G1 X46.661 Y65.095 E0.02277
G1 X46.400 Y66.070 E0.03166
G1 X45.933 Y66.070 E0.01463
G1 X44.777 Y66.171 E0.03638
G1 X43.630 Y66.394 E0.03665
G1 X42.520 Y66.733 E0.03638
G1 X41.798 Y67.025 E0.02444
G1 X41.422 Y67.201 E0.01301
G1 X40.414 Y67.759 E0.03611
G1 X39.457 Y68.429 E0.03665
G1 X38.581 Y69.191 E0.03638
G1 X38.034 Y69.757 E0.02470
G1 X37.528 Y70.361 E0.02470
G1 X36.862 Y71.311 E0.03638
G1 X36.304 Y72.318 E0.03611
G1 X36.128 Y72.694 E0.01301
G1 X35.837 Y73.417 E0.02444
G1 X35.497 Y74.527 E0.03638
G1 X35.274 Y75.674 E0.03665
G1 X35.173 Y76.830 E0.03638
G1 X35.173 Y77.063 E0.00732
G1 X21.117 Y77.055 E0.44072
G1 X20.645 Y76.978 E0.01498
G1 X20.178 Y76.818 E0.01549
G1 X19.753 Y76.582 E0.01523
G1 X19.429 Y76.328 E0.01292
G1 X19.225 Y76.125 E0.00904
G1 X18.931 Y75.737 E0.01523
G1 X18.783 Y75.470 E0.00956
G1 X18.668 Y75.197 E0.00930
G1 X18.602 Y74.982 E0.00705
G1 X18.884 Y74.739 E0.01168
G1 X19.089 Y74.495 E0.01001
G1 X19.234 Y74.255 E0.00878
G1 X19.620 Y74.122 E0.01280
G1 X20.103 Y73.854 E0.01731
G1 X20.532 Y73.507 E0.01731
G1 X20.894 Y73.090 E0.01731
G1 X21.177 Y72.619 E0.01725
G1 X21.309 Y72.275 E0.01153
G1 X22.010 Y72.041 E0.02318
G1 X22.414 Y71.835 E0.01420
G1 X22.794 Y71.589 E0.01420
G1 X23.329 Y71.123 E0.02225
G1 X23.786 Y70.559 E0.02278
G1 X24.139 Y69.923 E0.02278
G1 X24.359 Y69.283 E0.02123
G1 X24.581 Y69.240 E0.00708
G1 X25.090 Y69.084 E0.01669
G1 X25.432 Y68.946 E0.01157
G1 X25.763 Y68.784 E0.01157
G1 X26.220 Y68.510 E0.01669
G1 X26.645 Y68.190 E0.01669
G1 X26.925 Y67.937 E0.01183
G1 X27.288 Y67.548 E0.01669
G1 X27.613 Y67.116 E0.01695
G1 X27.888 Y66.660 E0.01669
G1 X28.053 Y66.321 E0.01183
G1 X28.241 Y65.832 E0.01642
G1 X28.378 Y65.297 E0.01733
G1 X28.823 Y65.210 E0.01419
G1 X29.432 Y65.024 E0.01998
G1 X29.839 Y64.860 E0.01376
G1 X30.233 Y64.667 E0.01376
G1 X30.772 Y64.344 E0.01970
G1 X31.133 Y64.081 E0.01402
G1 X31.614 Y63.663 E0.01997
G1 X32.054 Y63.191 E0.02023
G1 X32.443 Y62.676 E0.02023
G1 X32.771 Y62.130 E0.01997
G1 X32.963 Y61.735 E0.01376
G1 X33.127 Y61.329 E0.01376
G1 X33.314 Y60.719 E0.01998
G1 X33.394 Y60.304 E0.01325
G1 X33.813 Y60.238 E0.01328
G1 X34.314 Y60.113 E0.01621
G1 X35.015 Y59.872 E0.02325
G1 X35.695 Y59.555 E0.02352
G1 X36.331 Y59.173 E0.02325
G1 X36.749 Y58.869 E0.01621
G1 X37.309 Y58.382 E0.02325
G1 X37.820 Y57.834 E0.02351
G1 X38.266 Y57.242 E0.02325
G1 X38.540 Y56.803 E0.01621
G1 X38.877 Y56.142 E0.02326
G1 X39.146 Y55.442 E0.02351
G1 X39.340 Y54.718 E0.02352
G1 X39.404 Y54.314 E0.01282
G1 X40.029 Y54.215 E0.01984
G1 X40.846 Y53.996 E0.02653
G1 X41.398 Y53.795 E0.01840
G1 X42.165 Y53.438 E0.02654
G1 X42.890 Y53.002 E0.02653
G1 X43.365 Y52.657 E0.01840
G1 X44.003 Y52.102 E0.02653
G1 X44.586 Y51.477 E0.02680
G1 X45.096 Y50.801 E0.02654
G1 X45.406 Y50.303 E0.01840
G1 X45.791 Y49.549 E0.02653
G1 X46.097 Y48.751 E0.02680
G1 X46.318 Y47.926 E0.02680
G1 X46.414 Y47.323 E0.01912
G1 X47.228 Y47.194 E0.02587
G1 X47.865 Y47.036 E0.02059
G1 X48.765 Y46.726 E0.02982
G1 X49.626 Y46.324 E0.02982
G1 X50.195 Y45.996 E0.02059
G1 X50.974 Y45.450 E0.02981
G1 X51.698 Y44.821 E0.03008
G1 X52.347 Y44.125 E0.02982
G1 X52.746 Y43.615 E0.02032
G1 X53.108 Y43.078 E0.02032
G1 X53.569 Y42.246 E0.02982
G1 X53.944 Y41.363 E0.03008
G1 X54.224 Y40.445 E0.03008
G1 X54.412 Y39.452 E0.03170
M204 S1250
G1 X54.079 Y39.015 F9000.000
M204 S800
G1 F900.000
G1 X61.312 Y39.015 E0.22680
G1 X61.778 Y39.048 E0.01464
G1 X62.226 Y39.143 E0.01437
G1 X62.734 Y39.339 E0.01708
G1 X63.127 Y39.565 E0.01421
G1 X63.480 Y39.841 E0.01405
G1 X63.791 Y40.164 E0.01405
G1 X64.055 Y40.526 E0.01405
G1 X64.270 Y40.931 E0.01437
G1 X64.446 Y41.446 E0.01708
G1 X64.526 Y41.897 E0.01437
G1 X64.544 Y42.245 E0.01092
G1 X64.544 Y48.479 E0.19547
G1 X64.305 Y48.494 E0.00750
G1 X63.296 Y48.654 E0.03204
G1 X62.306 Y48.919 E0.03213
G1 X61.350 Y49.286 E0.03212
G1 X60.437 Y49.751 E0.03212
G1 X59.578 Y50.309 E0.03212
G1 X58.782 Y50.954 E0.03213
G1 X58.057 Y51.678 E0.03212
G1 X57.412 Y52.475 E0.03213
G1 X56.855 Y53.334 E0.03212
G1 X56.389 Y54.247 E0.03212
G1 X56.022 Y55.203 E0.03212
G1 X55.757 Y56.193 E0.03213
G1 X55.597 Y57.205 E0.03212
G1 X55.543 Y58.226 E0.03206
G1 X55.555 Y58.479 E0.00795
G1 X55.306 Y58.494 E0.00782
G1 X54.301 Y58.653 E0.03189
G1 X53.628 Y58.821 E0.02174
G1 X52.664 Y59.153 E0.03197
G1 X51.741 Y59.584 E0.03196
G1 X51.145 Y59.928 E0.02158
G1 X50.574 Y60.312 E0.02158
G1 X49.786 Y60.951 E0.03180
G1 X49.287 Y61.433 E0.02174
G1 X48.618 Y62.202 E0.03196
G1 X48.033 Y63.037 E0.03196
G1 X47.687 Y63.637 E0.02174
G1 X47.258 Y64.557 E0.03180
G1 X47.021 Y65.208 E0.02174
G1 X46.758 Y66.190 E0.03188
G1 X46.715 Y66.448 E0.00818
G1 X45.949 Y66.447 E0.02399
G1 X44.830 Y66.545 E0.03524
G1 X43.721 Y66.760 E0.03541
G1 X42.646 Y67.089 E0.03524
G1 X41.948 Y67.371 E0.02361
G1 X41.593 Y67.537 E0.01229
G1 X40.614 Y68.079 E0.03508
G1 X39.689 Y68.727 E0.03541
G1 X38.841 Y69.464 E0.03524
G1 X38.314 Y70.010 E0.02377
G1 X37.827 Y70.590 E0.02377
G1 X37.182 Y71.511 E0.03525
G1 X36.640 Y72.490 E0.03508
G1 X36.474 Y72.845 E0.01229
G1 X36.192 Y73.543 E0.02361
G1 X35.864 Y74.618 E0.03524
G1 X35.648 Y75.727 E0.03541
G1 X35.550 Y76.846 E0.03524
G1 X35.550 Y77.440 E0.01863
G1 X21.097 Y77.432 E0.45317
G1 X20.554 Y77.345 E0.01724
G1 X20.024 Y77.163 E0.01756
G1 X19.539 Y76.894 E0.01740
G1 X19.178 Y76.611 E0.01437
G1 X18.944 Y76.377 E0.01038
G1 X18.610 Y75.935 E0.01740
G1 X18.444 Y75.636 E0.01070
G1 X18.313 Y75.326 E0.01054
G1 X18.214 Y75.005 E0.01054
G1 X18.175 Y74.804 E0.00641
G1 X18.387 Y74.672 E0.00781
G1 X18.614 Y74.474 E0.00946
G1 X18.781 Y74.275 E0.00815
G1 X18.968 Y73.940 E0.01201
G1 X19.466 Y73.776 E0.01645
G1 X19.891 Y73.540 E0.01525
G1 X20.269 Y73.234 E0.01524
G1 X20.588 Y72.868 E0.01524
G1 X20.837 Y72.453 E0.01518
G1 X21.022 Y71.947 E0.01687
G1 X21.258 Y71.901 E0.00752
G1 X21.863 Y71.693 E0.02007
G1 X22.225 Y71.508 E0.01275
G1 X22.566 Y71.287 E0.01276
G1 X23.057 Y70.860 E0.02039
G1 X23.473 Y70.347 E0.02071
G1 X23.793 Y69.769 E0.02071
G1 X24.005 Y69.154 E0.02039
G1 X24.042 Y68.961 E0.00619
G1 X24.489 Y68.874 E0.01429
G1 X24.964 Y68.729 E0.01555
G1 X25.583 Y68.453 E0.02126
G1 X26.008 Y68.197 E0.01555
G1 X26.405 Y67.899 E0.01555
G1 X26.661 Y67.668 E0.01080
G1 X26.999 Y67.305 E0.01555
G1 X27.300 Y66.905 E0.01571
G1 X27.556 Y66.480 E0.01556
G1 X27.707 Y66.170 E0.01080
G1 X27.883 Y65.712 E0.01539
G1 X27.978 Y65.381 E0.01080
G1 X28.058 Y64.966 E0.01325
G1 X28.731 Y64.844 E0.02144
G1 X29.306 Y64.668 E0.01884
G1 X29.685 Y64.515 E0.01283
G1 X30.053 Y64.336 E0.01283
G1 X30.563 Y64.029 E0.01867
G1 X30.898 Y63.785 E0.01299
G1 X31.352 Y63.391 E0.01884
G1 X31.765 Y62.948 E0.01899
G1 X32.130 Y62.464 E0.01899
G1 X32.439 Y61.950 E0.01883
G1 X32.618 Y61.582 E0.01283
G1 X32.771 Y61.203 E0.01283
G1 X32.947 Y60.628 E0.01884
G1 X33.068 Y59.974 E0.02085
G1 X33.737 Y59.868 E0.02125
G1 X34.207 Y59.751 E0.01518
G1 X34.874 Y59.522 E0.02212
G1 X35.518 Y59.221 E0.02228
G1 X36.122 Y58.858 E0.02212
G1 X36.514 Y58.573 E0.01518
G1 X37.046 Y58.111 E0.02212
G1 X37.531 Y57.591 E0.02228
G1 X37.955 Y57.028 E0.02211
G1 X38.212 Y56.617 E0.01518
G1 X38.532 Y55.989 E0.02212
G1 X38.787 Y55.325 E0.02227
G1 X38.971 Y54.639 E0.02228
G1 X39.075 Y53.977 E0.02101
G1 X39.950 Y53.846 E0.02774
G1 X40.733 Y53.636 E0.02540
G1 X41.253 Y53.447 E0.01736
G1 X41.987 Y53.104 E0.02540
G1 X42.682 Y52.687 E0.02539
G1 X43.130 Y52.362 E0.01737
G1 X43.741 Y51.830 E0.02540
G1 X44.297 Y51.234 E0.02556
G1 X44.785 Y50.587 E0.02540
G1 X45.078 Y50.117 E0.01736
G1 X45.446 Y49.396 E0.02540
G1 X45.738 Y48.634 E0.02556
G1 X45.949 Y47.847 E0.02556
G1 X46.080 Y46.978 E0.02756
G1 X46.253 Y46.967 E0.00542
G1 X47.153 Y46.825 E0.02859
G1 X47.758 Y46.674 E0.01955
G1 X48.623 Y46.376 E0.02868
G1 X49.452 Y45.989 E0.02868
G1 X49.992 Y45.678 E0.01955
G1 X50.741 Y45.153 E0.02868
G1 X51.436 Y44.549 E0.02884
G1 X52.060 Y43.880 E0.02868
G1 X52.440 Y43.393 E0.01939
G1 X52.786 Y42.880 E0.01939
G1 X53.230 Y42.080 E0.02868
G1 X53.589 Y41.234 E0.02884
G1 X53.858 Y40.354 E0.02884
G1 X54.032 Y39.456 E0.02868
G1 X54.073 Y39.075 E0.01202
M204 S1250
G1 X53.729 Y38.638 F9000.000
M204 S800
G1 F900.000
G1 X61.325 Y38.638 E0.23820
G1 X61.831 Y38.673 E0.01588
G1 X62.324 Y38.778 E0.01582
G1 X62.557 Y38.854 E0.00769
G1 X62.903 Y39.001 E0.01178
G1 X63.338 Y39.252 E0.01576
G1 X63.733 Y39.560 E0.01570
G1 X64.081 Y39.921 E0.01570
G1 X64.375 Y40.326 E0.01570
G1 X64.612 Y40.771 E0.01582
G1 X64.704 Y40.998 E0.00769
G1 X64.814 Y41.358 E0.01178
G1 X64.901 Y41.854 E0.01582
G1 X64.921 Y42.235 E0.01195
G1 X64.921 Y48.834 E0.20690
G1 X64.346 Y48.869 E0.01805
G1 X63.375 Y49.023 E0.03085
G1 X62.423 Y49.278 E0.03089
G1 X61.504 Y49.631 E0.03088
G1 X60.626 Y50.078 E0.03088
G1 X59.800 Y50.615 E0.03088
G1 X59.034 Y51.235 E0.03089
G1 X58.338 Y51.931 E0.03088
G1 X57.718 Y52.697 E0.03089
G1 X57.182 Y53.523 E0.03088
G1 X56.734 Y54.400 E0.03088
G1 X56.381 Y55.320 E0.03088
G1 X56.126 Y56.271 E0.03089
G1 X55.972 Y57.244 E0.03088
G1 X55.921 Y58.227 E0.03086
G1 X55.948 Y58.833 E0.01903
G1 X55.347 Y58.869 E0.01890
G1 X54.376 Y59.023 E0.03080
G1 X53.736 Y59.183 E0.02071
G1 X52.806 Y59.503 E0.03083
G1 X51.915 Y59.918 E0.03082
G1 X51.344 Y60.248 E0.02065
G1 X50.798 Y60.616 E0.02065
G1 X50.036 Y61.234 E0.03077
G1 X49.561 Y61.692 E0.02071
G1 X48.916 Y62.434 E0.03082
G1 X48.352 Y63.240 E0.03083
G1 X48.022 Y63.812 E0.02071
G1 X47.607 Y64.701 E0.03077
G1 X47.381 Y65.322 E0.02071
G1 X47.127 Y66.270 E0.03080
G1 X47.030 Y66.845 E0.01828
G1 X46.694 Y66.824 E0.01057
G1 X45.966 Y66.824 E0.02282
G1 X44.882 Y66.919 E0.03411
G1 X43.813 Y67.127 E0.03417
G1 X42.772 Y67.445 E0.03411
G1 X42.099 Y67.717 E0.02278
G1 X41.764 Y67.873 E0.01157
G1 X40.814 Y68.399 E0.03405
G1 X39.922 Y69.024 E0.03417
G1 X39.101 Y69.738 E0.03411
G1 X38.595 Y70.262 E0.02284
G1 X38.127 Y70.820 E0.02284
G1 X37.503 Y71.711 E0.03411
G1 X36.976 Y72.661 E0.03405
G1 X36.820 Y72.995 E0.01157
G1 X36.548 Y73.669 E0.02278
G1 X36.230 Y74.709 E0.03411
G1 X36.022 Y75.779 E0.03417
G1 X35.927 Y76.863 E0.03411
G1 X35.941 Y77.818 E0.02995
G1 X21.077 Y77.809 E0.46604
G1 X20.833 Y77.783 E0.00769
G1 X20.463 Y77.711 E0.01184
G1 X20.102 Y77.601 E0.01184
G1 X19.871 Y77.507 E0.00780
G1 X19.647 Y77.398 E0.00780
G1 X19.325 Y77.205 E0.01178
G1 X18.928 Y76.894 E0.01582
G1 X18.663 Y76.630 E0.01173
G1 X18.426 Y76.336 E0.01184
G1 X18.288 Y76.132 E0.00774
G1 X18.105 Y75.802 E0.01184
G1 X17.958 Y75.456 E0.01178
G1 X17.848 Y75.096 E0.01178
G1 X17.762 Y74.571 E0.01670
G1 X17.992 Y74.474 E0.00782
G1 X18.162 Y74.368 E0.00628
G1 X18.345 Y74.209 E0.00760
G1 X18.473 Y74.056 E0.00629
G1 X18.598 Y73.848 E0.00760
G1 X18.687 Y73.604 E0.00813
G1 X18.915 Y73.567 E0.00724
G1 X19.312 Y73.430 E0.01316
G1 X19.679 Y73.227 E0.01318
G1 X20.006 Y72.962 E0.01318
G1 X20.281 Y72.645 E0.01317
G1 X20.497 Y72.286 E0.01312
G1 X20.649 Y71.892 E0.01326
G1 X20.700 Y71.615 E0.00881
G1 X21.160 Y71.536 E0.01463
G1 X21.715 Y71.345 E0.01841
G1 X22.036 Y71.181 E0.01131
G1 X22.339 Y70.985 E0.01131
G1 X22.785 Y70.597 E0.01853
G1 X23.159 Y70.135 E0.01864
G1 X23.447 Y69.615 E0.01864
G1 X23.639 Y69.057 E0.01853
G1 X23.717 Y68.616 E0.01402
G1 X23.945 Y68.595 E0.00720
G1 X24.398 Y68.507 E0.01446
G1 X24.838 Y68.373 E0.01442
G1 X25.125 Y68.257 E0.00971
G1 X25.403 Y68.121 E0.00971
G1 X25.797 Y67.884 E0.01442
G1 X26.165 Y67.608 E0.01442
G1 X26.396 Y67.399 E0.00977
G1 X26.710 Y67.063 E0.01442
G1 X26.987 Y66.694 E0.01447
G1 X27.224 Y66.300 E0.01442
G1 X27.361 Y66.020 E0.00977
G1 X27.525 Y65.592 E0.01436
G1 X27.611 Y65.293 E0.00977
G1 X27.698 Y64.842 E0.01440
G1 X27.719 Y64.618 E0.00706
G1 X28.084 Y64.585 E0.01149
G1 X28.640 Y64.478 E0.01775
G1 X29.180 Y64.312 E0.01770
G1 X29.532 Y64.170 E0.01190
G1 X29.873 Y64.004 E0.01190
G1 X30.355 Y63.714 E0.01764
G1 X30.663 Y63.490 E0.01196
G1 X31.089 Y63.120 E0.01770
G1 X31.476 Y62.706 E0.01776
G1 X31.816 Y62.253 E0.01776
G1 X32.107 Y61.770 E0.01770
G1 X32.274 Y61.428 E0.01190
G1 X32.416 Y61.077 E0.01190
G1 X32.581 Y60.537 E0.01770
G1 X32.689 Y59.981 E0.01775
G1 X32.721 Y59.622 E0.01130
G1 X33.003 Y59.603 E0.00887
G1 X33.662 Y59.498 E0.02093
G1 X34.100 Y59.389 E0.01414
G1 X34.732 Y59.171 E0.02098
G1 X35.341 Y58.888 E0.02104
G1 X35.914 Y58.543 E0.02098
G1 X36.279 Y58.278 E0.01414
G1 X36.784 Y57.839 E0.02098
G1 X37.242 Y57.348 E0.02104
G1 X37.644 Y56.814 E0.02098
